X:1
T:Midnight On The Water
C: Luke Thomasson
M:3/4
L:1/8
Q:120
R:Waltz
F:http://crash.ihug.co.nz/~dexy/music/celtic.abc 2004-09-09 22:58:34 UT
K:D
DE|"D".F2 F2- FE|"Bm".F2 F2- FE|"D".F2 A2- AB|AF (3E/2F/2E/2D DE|
F2 "G"d2 (3BdB|"D"AF ED DE| \
FA- AF "A"(3E/2F/2E/2D|1"D"D4 :|2"D"D4 (3ABc||
"G"d2d3 e|dc BA Bc|"D"d3 B AF| \
D4 d2|"Em".e2 e2- ef|e3 d e2|
"F#m"f3 a fe|dc BA Bc|"G"d3 c de| \
dc BA Bc|"D"d3 B AF|"G"D4 DE|
"D"F2 "G"d2 (3BdB|"D"AF ED DE|FA- AF "A"ED|"D"D4||
